X:1
T:Avant deux de travers "Armor Argoat"
C:Bernard Loffet
L:1/8
Q:480
M:2/2
K:C
 [e2C,,2][c2C,2] [c2F,,2][BF,]c | [d2G,,2][eG,]f [e2C,,2][c2C,2] | [e2C,,2][c2C,2] [c2F,,2][BF,]c | \
 [d2G,,2][B2G,2] [c2C,,2][e2C,2] | [e2C,,2][c2C,2] [c2F,,2][BF,]c | [d2G,,2][eG,]f [e2C,,2][c2C,2] | \
 [e2C,,2][c2C,2] [c2F,,2][BF,]c | [d2G,,2][B2G,2] [c2C,,2]C,2 | [G2C,,2]C,2 [c2F,,2][BF,]c | \
 [d2G,,2][eG,]f [e2C,,2][c2C,2] | [G2C,,2][c2C,2] [c2F,,2][BF,]c | [d2G,,2][B2G,2] [c2C,,2][e2C,2] | \
 [G2C,,2]C,2 [c2F,,2][BF,]c | [d2G,,2][eG,]f [e2C,,2][c2C,2] | [G2C,,2][c2C,2] [c2F,,2][BF,]c | \
 [d2G,,2][B2G,2] [c2C,,2]C,2 |: [g2G,,2][dG,]d [d2G,,2][e2G,2] | [d2G,,2][c2G,2] [B2G,,2][d2G,2] | \
 [G2C,,2][c2C,2] [c2F,,2][BF,]c | [d2G,,2][eG,]f [e2C,,2][c2C,2] | [g2G,,2][dG,]d [d2G,,2][e2G,2] | \
 [d2G,,2][c2G,2] [B2G,,2][d2G,2] | [G2C,,2][c2C,2] [c2F,,2][BF,]c | [d2G,,2][B2G,2] [c2C,,2]C,2 :| \
W:Created with TablEdit http://www.tabledit.com/ by Bernard Loffet
